;FLAVOR:RepRap

;TIME:69
;Filament used: 0.0171944m
;Layer height: 0.1
;Generated with Cura_SteamEngine 3.3.1
T0
M190 S60
M104 S220
M109 S220
M82 ;absolute extrusion mode
G28 ;Home
G1 Z25.0 F6000 ;Move the platform down 25mm
;Prime the extruder
G92 E0
G1 F200 E3
G92 E0
M83 ;relative extrusion mode
G1 F1500 E-6.5
;LAYER_COUNT:19
;LAYER:0
M107
G0 F3600 X55.348 Y43.476 Z0.3
;TYPE:SKIRT
G1 F1500 E6.5
G1 F1800 X55.78 Y42.924 E0.03497
G1 X56.199 Y42.458 E0.03126
G1 X56.659 Y42.006 E0.03217
G1 X57.369 Y41.489 E0.04382
G1 X58.119 Y41.034 E0.04376
G1 X58.69 Y40.735 E0.03216
G1 X59.293 Y40.508 E0.03214
G1 X59.92 Y40.358 E0.03216
G1 X60.271 Y40.309 E0.01768
G1 X61.514 Y40.178 E0.06236
G1 X62.158 Y40.15 E0.03216
G1 X62.801 Y40.202 E0.03218
G1 X63.671 Y40.405 E0.04457
G1 X64.462 Y40.663 E0.04151
G1 X65.062 Y40.901 E0.0322
G1 X65.72 Y41.271 E0.03766
G1 X66.072 Y41.504 E0.02106
G1 X66.587 Y41.892 E0.03217
G1 X66.902 Y42.186 E0.0215
G1 X67.379 Y42.669 E0.03387
G1 X67.803 Y43.155 E0.03218
G1 X68.163 Y43.69 E0.03217
G1 X68.344 Y44.025 E0.019
G1 X68.747 Y44.843 E0.04549
G1 X68.995 Y45.438 E0.03216
G1 X69.168 Y46.059 E0.03216
G1 X69.228 Y46.393 E0.01693
G1 X69.318 Y47.012 E0.03121
G1 X69.371 Y47.654 E0.03214
G1 X69.305 Y48.589 E0.04676
G1 X69.162 Y49.474 E0.04473
G1 X69.02 Y50.103 E0.03217
G1 X68.763 Y50.797 E0.03692
G1 X68.573 Y51.215 E0.02291
G1 X68.27 Y51.784 E0.03216
G1 X67.81 Y52.42 E0.03916
G1 X67.247 Y53.086 E0.04351
G1 X66.801 Y53.552 E0.03218
G1 X66.057 Y54.123 E0.04679
G1 X65.575 Y54.428 E0.02846
G1 X65.009 Y54.738 E0.0322
G1 X64.478 Y54.954 E0.0286
G1 X63.882 Y55.158 E0.03143
G1 X63.26 Y55.328 E0.03217
G1 X62.624 Y55.42 E0.03206
G1 X62.004 Y55.471 E0.03104
G1 X61.36 Y55.484 E0.03214
G1 X60.694 Y55.413 E0.03342
G1 X60.091 Y55.309 E0.03053
G1 X59.464 Y55.161 E0.03214
G1 X58.872 Y54.941 E0.03151
G1 X58.302 Y54.689 E0.03109
G1 X57.73 Y54.392 E0.03215
G1 X57.159 Y53.995 E0.0347
G1 X56.661 Y53.597 E0.03181
G1 X56.183 Y53.164 E0.03218
G1 X55.749 Y52.658 E0.03326
G1 X55.375 Y52.16 E0.03107
G1 X55.021 Y51.621 E0.03217
G1 X54.64 Y50.796 E0.04534
G1 X54.343 Y49.97 E0.04379
G1 X54.163 Y49.351 E0.03216
G1 X54.046 Y48.526 E0.04157
G1 X54.015 Y48.016 E0.02549
G1 X54.015 Y47.372 E0.03213
G1 X54.092 Y46.753 E0.03112
G1 X54.219 Y46.068 E0.03476
G1 X54.376 Y45.443 E0.03215
G1 X54.704 Y44.645 E0.04304
G1 X55.019 Y44.03 E0.03447
G1 X55.348 Y43.476 E0.03215
G0 F3600 X55.692 Y43.681
G1 F1800 X56.078 Y43.192 E0.03108
G1 X56.497 Y42.726 E0.03126
G1 X56.94 Y42.293 E0.03091
G1 X57.576 Y41.831 E0.03922
G1 X58.326 Y41.376 E0.04376
G1 X58.875 Y41.09 E0.03088
G1 X59.457 Y40.876 E0.03094
G1 X60.313 Y40.706 E0.04354
G1 X61.556 Y40.575 E0.06236
G1 X62.175 Y40.55 E0.03091
G1 X62.792 Y40.605 E0.0309
G1 X63.547 Y40.786 E0.03873
G1 X64.338 Y41.044 E0.04151
G1 X64.914 Y41.273 E0.03092
G1 X65.499 Y41.604 E0.03353
G1 X65.851 Y41.837 E0.02106
G1 X66.345 Y42.212 E0.03094
G1 X66.617 Y42.467 E0.0186
G1 X67.094 Y42.95 E0.03387
G1 X67.5 Y43.418 E0.03091
G1 X67.985 Y44.202 E0.04599
G1 X68.388 Y45.02 E0.04549
G1 X68.625 Y45.592 E0.03089
G1 X68.832 Y46.45 E0.04403
G1 X68.922 Y47.069 E0.03121
G1 X68.971 Y47.687 E0.03093
G1 X68.911 Y48.526 E0.04196
G1 X68.768 Y49.411 E0.04473
G1 X68.63 Y50.014 E0.03086
G1 X68.399 Y50.631 E0.03287
G1 X68.209 Y51.049 E0.02291
G1 X67.917 Y51.595 E0.03089
G1 X67.505 Y52.162 E0.03497
G1 X66.942 Y52.828 E0.04351
G1 X66.512 Y53.274 E0.03091
G1 X65.843 Y53.785 E0.042
G1 X65.361 Y54.09 E0.02846
G1 X64.817 Y54.387 E0.03092
G1 X64.348 Y54.575 E0.02521
G1 X63.752 Y54.779 E0.03143
G1 X63.155 Y54.942 E0.03087
G1 X62.592 Y55.022 E0.02837
G1 X61.972 Y55.073 E0.03104
G1 X61.352 Y55.084 E0.03094
G1 X60.762 Y55.019 E0.02961
G1 X60.159 Y54.915 E0.03053
G1 X59.557 Y54.771 E0.03088
G1 X59.034 Y54.575 E0.02786
G1 X58.464 Y54.323 E0.03109
G1 X57.915 Y54.037 E0.03088
G1 X57.408 Y53.683 E0.03085
G1 X56.91 Y53.285 E0.03181
G1 X56.452 Y52.868 E0.0309
G1 X56.069 Y52.417 E0.02952
G1 X55.695 Y51.919 E0.03107
G1 X55.356 Y51.401 E0.03089
G1 X55.016 Y50.661 E0.04063
G1 X54.719 Y49.835 E0.04379
G1 X54.548 Y49.24 E0.03089
G1 X54.445 Y48.502 E0.03718
G1 X54.414 Y47.992 E0.02549
G1 X54.416 Y47.373 E0.03088
G1 X54.485 Y46.826 E0.02751
G1 X54.612 Y46.141 E0.03476
G1 X54.764 Y45.541 E0.03088
G1 X55.06 Y44.828 E0.03852
G1 X55.375 Y44.213 E0.03447
G1 X55.692 Y43.681 E0.0309
G0 F3600 X56.036 Y43.887
G1 F1800 X56.375 Y43.459 E0.02724
G1 X56.794 Y42.993 E0.03126
G1 X57.219 Y42.58 E0.02957
G1 X57.784 Y42.173 E0.03474
G1 X58.534 Y41.718 E0.04376
G1 X59.06 Y41.445 E0.02957
G1 X59.619 Y41.246 E0.0296
G1 X60.355 Y41.104 E0.0374
G1 X61.598 Y40.973 E0.06236
G1 X62.19 Y40.951 E0.02956
G1 X62.781 Y41.009 E0.02963
G1 X63.423 Y41.166 E0.03297
G1 X64.214 Y41.424 E0.04151
G1 X64.764 Y41.645 E0.02957
G1 X65.279 Y41.938 E0.02956
G1 X65.631 Y42.171 E0.02106
G1 X66.102 Y42.531 E0.02958
G1 X66.333 Y42.748 E0.01581
G1 X66.81 Y43.231 E0.03387
G1 X67.197 Y43.68 E0.02957
G1 X67.626 Y44.378 E0.04087
G1 X68.029 Y45.196 E0.04549
G1 X68.255 Y45.745 E0.02962
G1 X68.436 Y46.508 E0.03912
G1 X68.526 Y47.127 E0.03121
G1 X68.572 Y47.718 E0.02957
G1 X68.516 Y48.462 E0.03722
G1 X68.373 Y49.347 E0.04473
G1 X68.239 Y49.925 E0.0296
G1 X68.035 Y50.466 E0.02885
G1 X67.845 Y50.884 E0.02291
G1 X67.563 Y51.406 E0.0296
G1 X67.199 Y51.904 E0.03077
G1 X66.636 Y52.57 E0.04351
G1 X66.224 Y52.996 E0.02957
G1 X65.629 Y53.447 E0.03725
G1 X65.147 Y53.752 E0.02846
G1 X64.625 Y54.035 E0.02962
G1 X64.219 Y54.197 E0.02181
G1 X63.623 Y54.401 E0.03143
G1 X63.05 Y54.555 E0.0296
G1 X62.559 Y54.623 E0.02473
G1 X61.939 Y54.674 E0.03104
G1 X61.346 Y54.683 E0.02959
G1 X60.83 Y54.625 E0.02591
G1 X60.227 Y54.521 E0.03053
G1 X59.651 Y54.381 E0.02957
G1 X59.196 Y54.209 E0.02427
G1 X58.626 Y53.957 E0.03109
G1 X58.101 Y53.681 E0.02959
G1 X57.658 Y53.37 E0.027
G1 X57.16 Y52.972 E0.03181
G1 X56.723 Y52.572 E0.02956
G1 X56.389 Y52.177 E0.02581
G1 X56.015 Y51.679 E0.03107
G1 X55.691 Y51.182 E0.0296
G1 X55.393 Y50.526 E0.03595
G1 X55.096 Y49.7 E0.04379
G1 X54.933 Y49.13 E0.02958
G1 X54.844 Y48.478 E0.03283
G1 X54.813 Y47.968 E0.02549
G1 X54.817 Y47.375 E0.02959
G1 X54.879 Y46.899 E0.02395
G1 X55.006 Y46.214 E0.03476
G1 X55.153 Y45.639 E0.02961
G1 X55.416 Y45.01 E0.03401
G1 X55.731 Y44.395 E0.03447
G1 X56.036 Y43.887 E0.02956
G0 F3600 X56.379 Y44.094
G1 F1800 X56.673 Y43.727 E0.02346
G1 X57.092 Y43.261 E0.03126
G1 X57.498 Y42.868 E0.02819
G1 X57.991 Y42.515 E0.03025
G1 X58.741 Y42.06 E0.04376
G1 X59.244 Y41.802 E0.0282
G1 X59.778 Y41.617 E0.02819
G1 X60.397 Y41.502 E0.03141
G1 X61.64 Y41.371 E0.06236
G1 X62.205 Y41.352 E0.0282
G1 X62.767 Y41.412 E0.0282
G1 X63.299 Y41.546 E0.02737
G1 X64.09 Y41.804 E0.04151
G1 X64.614 Y42.017 E0.02822
G1 X65.058 Y42.272 E0.02554
G1 X65.41 Y42.505 E0.02106
G1 X66.048 Y43.029 E0.04119
G1 X66.525 Y43.512 E0.03387
G1 X66.893 Y43.942 E0.02824
G1 X67.267 Y44.555 E0.03583
G1 X67.67 Y45.373 E0.04549
G1 X67.884 Y45.897 E0.02824
G1 X68.04 Y46.565 E0.03422
G1 X68.13 Y47.184 E0.03121
G1 X68.172 Y47.748 E0.02822
G1 X68.121 Y48.398 E0.03253
G1 X67.978 Y49.283 E0.04473
G1 X67.848 Y49.833 E0.0282
G1 X67.67 Y50.3 E0.02493
G1 X67.48 Y50.718 E0.02291
G1 X67.211 Y51.215 E0.02819
G1 X66.894 Y51.645 E0.02665
G1 X66.331 Y52.311 E0.04351
G1 X65.936 Y52.716 E0.02822
G1 X65.415 Y53.109 E0.03256
G1 X64.933 Y53.414 E0.02846
G1 X64.435 Y53.682 E0.02821
G1 X64.089 Y53.818 E0.01855
G1 X63.493 Y54.022 E0.03143
G1 X62.947 Y54.167 E0.02818
G1 X62.526 Y54.225 E0.0212
G1 X61.906 Y54.276 E0.03104
G1 X61.341 Y54.282 E0.02819
G1 X60.898 Y54.231 E0.02225
G1 X60.295 Y54.127 E0.03053
G1 X59.746 Y53.992 E0.02821
G1 X59.358 Y53.843 E0.02074
G1 X58.788 Y53.591 E0.03109
G1 X58.288 Y53.327 E0.02821
G1 X57.908 Y53.058 E0.02323
G1 X57.41 Y52.66 E0.03181
G1 X56.994 Y52.276 E0.02824
G1 X56.709 Y51.937 E0.0221
G1 X56.335 Y51.439 E0.03107
G1 X56.028 Y50.964 E0.02822
G1 X55.769 Y50.39 E0.03142
G1 X55.472 Y49.564 E0.04379
G1 X55.319 Y49.02 E0.02819
G1 X55.243 Y48.454 E0.02849
G1 X55.212 Y47.944 E0.02549
G1 X55.218 Y47.378 E0.02824
G1 X55.272 Y46.972 E0.02043
G1 X55.399 Y46.287 E0.03476
G1 X55.541 Y45.74 E0.02819
G1 X55.772 Y45.192 E0.02967
G1 X56.087 Y44.577 E0.03447
G1 X56.379 Y44.094 E0.02816
G0 F3600 X56.722 Y44.302
G1 F1800 X56.97 Y43.994 E0.01973
G1 X57.389 Y43.528 E0.03126
G1 X57.776 Y43.157 E0.02675
G1 X58.199 Y42.857 E0.02587
G1 X58.949 Y42.402 E0.04376
G1 X59.427 Y42.159 E0.02675
G1 X59.935 Y41.989 E0.02673
G1 X60.439 Y41.9 E0.02553
G1 X61.682 Y41.769 E0.06236
G1 X62.218 Y41.753 E0.02675
G1 X62.75 Y41.816 E0.02673
G1 X63.175 Y41.926 E0.0219
G1 X63.966 Y42.184 E0.04151
G1 X64.462 Y42.388 E0.02676
G1 X64.837 Y42.605 E0.02162
G1 X65.189 Y42.838 E0.02106
G1 X65.763 Y43.31 E0.03708
G1 X66.24 Y43.793 E0.03387
G1 X66.588 Y44.202 E0.02679
G1 X66.908 Y44.732 E0.03089
G1 X67.311 Y45.55 E0.04549
G1 X67.512 Y46.047 E0.02675
G1 X67.645 Y46.623 E0.02949
G1 X67.735 Y47.242 E0.03121
G1 X67.772 Y47.777 E0.02676
G1 X67.726 Y48.334 E0.02788
G1 X67.583 Y49.219 E0.04473
G1 X67.458 Y49.741 E0.02678
G1 X67.306 Y50.135 E0.02107
G1 X67.116 Y50.553 E0.02291
G1 X66.859 Y51.023 E0.02672
G1 X66.588 Y51.387 E0.02264
G1 X66.025 Y52.053 E0.04351
G1 X65.65 Y52.436 E0.02674
G1 X65.201 Y52.771 E0.02795
G1 X64.719 Y53.076 E0.02846
G1 X64.246 Y53.328 E0.02674
G1 X63.96 Y53.44 E0.01532
G1 X63.364 Y53.644 E0.03143
G1 X62.845 Y53.779 E0.02675
G1 X62.493 Y53.826 E0.01772
G1 X61.873 Y53.877 E0.03104
G1 X61.337 Y53.881 E0.02674
G1 X60.966 Y53.837 E0.01864
G1 X60.363 Y53.733 E0.03053
G1 X59.843 Y53.602 E0.02675
G1 X59.519 Y53.478 E0.01731
G1 X58.949 Y53.226 E0.03109
G1 X58.476 Y52.973 E0.02676
G1 X58.157 Y52.745 E0.01956
G1 X57.659 Y52.347 E0.03181
G1 X57.267 Y51.982 E0.02672
G1 X57.028 Y51.697 E0.01856
G1 X56.654 Y51.199 E0.03107
G1 X56.365 Y50.747 E0.02677
G1 X56.145 Y50.255 E0.02689
G1 X55.848 Y49.429 E0.04379
G1 X55.705 Y48.912 E0.02676
G1 X55.643 Y48.429 E0.02429
G1 X55.612 Y47.919 E0.02549
G1 X55.619 Y47.383 E0.02674
G1 X55.665 Y47.045 E0.01702
G1 X55.792 Y46.36 E0.03476
G1 X55.929 Y45.841 E0.02678
G1 X56.128 Y45.375 E0.02528
G1 X56.443 Y44.76 E0.03447
G1 X56.722 Y44.302 E0.02676
G0 F3600 X57.064 Y44.512
G1 F1800 X57.267 Y44.261 E0.01611
G1 X57.686 Y43.795 E0.03126
G1 X58.053 Y43.447 E0.02523
G1 X58.406 Y43.199 E0.02152
G1 X59.156 Y42.744 E0.04376
G1 X59.608 Y42.517 E0.02523
G1 X60.09 Y42.364 E0.02523
G1 X60.481 Y42.298 E0.01978
G1 X61.724 Y42.167 E0.06236
G1 X62.229 Y42.154 E0.0252
G1 X62.73 Y42.22 E0.02521
G1 X63.051 Y42.307 E0.01659
G1 X63.842 Y42.565 E0.04151
G1 X64.309 Y42.759 E0.02523
G1 X64.616 Y42.939 E0.01775
G1 X64.968 Y43.172 E0.02106
G1 X65.479 Y43.591 E0.03297
G1 X65.956 Y44.074 E0.03387
G1 X66.282 Y44.461 E0.02524
G1 X66.55 Y44.909 E0.02604
G1 X66.953 Y45.727 E0.04549
G1 X67.139 Y46.197 E0.02522
G1 X67.249 Y46.681 E0.02476
G1 X67.339 Y47.3 E0.03121
G1 X67.372 Y47.804 E0.0252
G1 X67.331 Y48.27 E0.02334
G1 X67.188 Y49.155 E0.04473
G1 X67.068 Y49.647 E0.02527
G1 X66.942 Y49.969 E0.01725
G1 X66.752 Y50.387 E0.02291
G1 X66.507 Y50.829 E0.02521
G1 X66.283 Y51.129 E0.01868
G1 X65.72 Y51.795 E0.04351
G1 X65.364 Y52.154 E0.02522
G1 X64.987 Y52.433 E0.0234
G1 X64.505 Y52.738 E0.02846
G1 X63.83 Y53.062 E0.03735
G1 X63.234 Y53.266 E0.03143
G1 X62.745 Y53.391 E0.02518
G1 X62.46 Y53.427 E0.01433
G1 X61.84 Y53.478 E0.03104
G1 X61.335 Y53.48 E0.02519
G1 X61.034 Y53.442 E0.01514
G1 X60.431 Y53.338 E0.03053
G1 X59.941 Y53.213 E0.02523
G1 X59.681 Y53.112 E0.01392
G1 X59.111 Y52.86 E0.03109
G1 X58.666 Y52.619 E0.02525
G1 X58.407 Y52.433 E0.01591
G1 X57.909 Y52.035 E0.03181
G1 X57.54 Y51.689 E0.02524
G1 X57.348 Y51.457 E0.01502
G1 X56.974 Y50.959 E0.03107
G1 X56.704 Y50.532 E0.0252
G1 X56.522 Y50.12 E0.02247
G1 X56.225 Y49.294 E0.04379
G1 X56.092 Y48.806 E0.02523
G1 X56.042 Y48.405 E0.02016
G1 X56.011 Y47.895 E0.02549
G1 X56.02 Y47.39 E0.0252
G1 X56.059 Y47.118 E0.01371
G1 X56.186 Y46.433 E0.03476
G1 X56.317 Y45.944 E0.02526
G1 X56.484 Y45.557 E0.02103
G1 X56.799 Y44.942 E0.03447
G1 X57.064 Y44.512 E0.0252
G1 F1500 E-6.5
G0 F3600 X59.102 Y45.992
G0 X59.848 Y46.466
G0 X59.928 Y46.487
G0 X59.939 Y46.489
G0 X63.871 Y47.533
G0 X63.971 Y47.527
;TYPE:WALL-OUTER
G1 F1500 E6.5
G1 F1800 X63.99 Y47.809 E0.0141
G1 X63.975 Y48.063 E0.01269
G1 X63.969 Y48.101 E0.00192
G1 X63.925 Y48.347 E0.01247
G1 X63.914 Y48.384 E0.00193
G1 X63.842 Y48.617 E0.01217
G1 X63.824 Y48.658 E0.00223
G1 X63.72 Y48.889 E0.01264
G1 X63.702 Y48.919 E0.00175
G1 X63.572 Y49.129 E0.01232
G1 X63.546 Y49.161 E0.00206
G1 X63.392 Y49.354 E0.01232
G1 X63.362 Y49.383 E0.00208
G1 X63.186 Y49.553 E0.01221
G1 X63.154 Y49.584 E0.00222
G1 X62.956 Y49.726 E0.01216
G1 X62.921 Y49.752 E0.00218
G1 X62.705 Y49.871 E0.0123
G1 X62.674 Y49.888 E0.00176
G1 X62.44 Y49.981 E0.01256
G1 X62.402 Y49.996 E0.00204
G1 X62.162 Y50.057 E0.01235
G1 X62.116 Y50.069 E0.00237
G1 X61.876 Y50.099 E0.01207
G1 X61.839 Y50.104 E0.00186
G1 X61.587 Y50.104 E0.01257
G1 X61.543 Y50.104 E0.0022
G1 X61.301 Y50.074 E0.01217
G1 X61.265 Y50.069 E0.00181
G1 X61.02 Y50.007 E0.01261
G1 X60.979 Y49.996 E0.00212
G1 X60.748 Y49.905 E0.01239
G1 X60.707 Y49.888 E0.00221
G1 X60.494 Y49.771 E0.01212
G1 X60.46 Y49.752 E0.00194
G1 X60.258 Y49.605 E0.01246
G1 X60.227 Y49.583 E0.0019
G1 X60.044 Y49.411 E0.01253
G1 X60.011 Y49.38 E0.00226
G1 X59.832 Y49.164 E0.014
G1 X59.809 Y49.128 E0.00213
G1 X59.675 Y48.917 E0.01247
G1 X59.658 Y48.881 E0.00199
G1 X59.552 Y48.655 E0.01245
G1 X59.541 Y48.619 E0.00188
G1 X59.464 Y48.386 E0.01224
G1 X59.462 Y48.376 E0.00051
G1 X59.41 Y48.098 E0.01411
G1 X59.392 Y47.809 E0.01445
G1 X59.41 Y47.521 E0.0144
G1 X59.461 Y47.244 E0.01405
G1 X59.464 Y47.233 E0.00057
G1 X59.552 Y46.964 E0.01412
G1 X59.675 Y46.702 E0.01444
G1 X59.832 Y46.455 E0.0146
G1 X60.011 Y46.239 E0.014
G1 X60.019 Y46.232 E0.00053
G1 X60.227 Y46.036 E0.01426
G1 X60.457 Y45.869 E0.01418
G1 X60.713 Y45.727 E0.01461
G1 X60.976 Y45.624 E0.01409
G1 X60.986 Y45.622 E0.00051
G1 X61.253 Y45.554 E0.01375
G1 X61.266 Y45.55 E0.00068
G1 X61.543 Y45.514 E0.01394
G1 X61.838 Y45.514 E0.01472
G1 X62.116 Y45.55 E0.01399
G1 X62.127 Y45.552 E0.00056
G1 X62.395 Y45.621 E0.01381
G1 X62.405 Y45.624 E0.00052
G1 X62.668 Y45.727 E0.01409
G1 X62.924 Y45.869 E0.01461
G1 X63.154 Y46.036 E0.01418
G1 X63.362 Y46.232 E0.01426
G1 X63.37 Y46.239 E0.00053
G1 X63.546 Y46.452 E0.01378
G1 X63.553 Y46.462 E0.00061
G1 X63.702 Y46.696 E0.01384
G1 X63.708 Y46.706 E0.00058
G1 X63.829 Y46.963 E0.01417
G1 X63.919 Y47.239 E0.01448
G1 X63.971 Y47.515 E0.01401
G1 X63.971 Y47.527 E0.0006
G0 F3600 X63.984 Y47.727
G0 X63.874 Y48.085
G1 F1800 X63.875 Y48.057
G1 X63.891 Y47.809
G1 X63.874 Y47.534
G1 X63.822 Y47.262
G1 X63.736 Y46.999
G1 X63.619 Y46.75
G1 X63.471 Y46.516
G1 X63.295 Y46.303
G1 X63.094 Y46.114
G1 X62.87 Y45.952
G1 X62.627 Y45.819
G1 X62.371 Y45.716
G1 X62.104 Y45.648
G1 X61.829 Y45.613
G1 X61.552 Y45.613
G1 X61.278 Y45.648
G1 X61.011 Y45.716
G1 X60.754 Y45.819
G1 X60.512 Y45.952
G1 X60.288 Y46.114
G1 X60.087 Y46.303
G1 X59.911 Y46.516
G1 X59.762 Y46.749
G1 X59.645 Y46.999
G1 X59.56 Y47.262
G1 X59.508 Y47.534
G1 X59.491 Y47.809
G1 X59.508 Y48.085
G1 X59.56 Y48.356
G1 X59.634 Y48.588
G1 X59.645 Y48.612
G1 X59.747 Y48.838
G1 X59.762 Y48.862
G1 X59.892 Y49.075
G1 X59.911 Y49.098
G1 X60.09 Y49.313
G1 X60.111 Y49.338
G1 X60.296 Y49.507
G1 X60.316 Y49.525
G1 X60.519 Y49.667
G1 X60.542 Y49.684
G1 X60.755 Y49.798
G1 X60.785 Y49.814
G1 X61.015 Y49.9
G1 X61.044 Y49.911
G1 X61.289 Y49.969
G1 X61.313 Y49.975
G1 X61.555 Y50.001
G1 X61.587 Y50.005
G1 X61.837 Y50.002
G1 X61.863 Y50.001
G1 X62.102 Y49.967
G1 X62.137 Y49.962
G1 X62.375 Y49.897
G1 X62.403 Y49.889
G1 X62.635 Y49.794
G1 X62.658 Y49.784
G1 X62.87 Y49.662
G1 X62.898 Y49.646
G1 X63.091 Y49.501
G1 X63.118 Y49.481
G1 X63.295 Y49.315
G1 X63.315 Y49.291
G1 X63.471 Y49.103
G1 X63.488 Y49.076
G1 X63.619 Y48.869
G1 X63.629 Y48.848
G1 X63.736 Y48.62
G1 X63.746 Y48.587
G1 X63.822 Y48.357
G1 X63.827 Y48.329
G1 X63.874 Y48.085
G0 F3600 X63.875 Y48.057
G0 X63.886 Y47.885
G0 X63.986 Y47.891
G0 X63.995 Y47.899
G0 X63.95 Y47.809
G0 X63.792 Y46.977
G0 X63.341 Y46.266
G0 X62.651 Y45.763
G0 X62.393 Y45.662
G0 X62.384 Y45.606
G0 X62.402 Y45.621
G0 X62.371 Y45.716
;TIME_ELAPSED:18.407813
;LAYER:1
M140 S60
